packages/core/src/svgs/tokens/mono/MEX.svg

<svg width="24" height="24" viewBox="0 0 24 24" fill="none" xmlns="http://www.w3.org/2000/svg">
<path d="M5.02002 7.89948L6.02153 7.25098L6.96204 7.89948L6.02153 8.47099L5.02002 7.89948ZM3.32001 8.84149L2.319 9.49049L3.32051 10.0615L4.26152 9.49049L3.32001 8.84149ZM2 9.74903V14.436L6.00003 16.7491V12.123L2 9.74903ZM6.02153 8.84149L5.02002 9.49049L6.02153 10.0615L6.96204 9.49049L6.02153 8.84149ZM5.02002 11.0815L6.02153 10.4325L6.96204 11.081L6.02153 11.6525L5.02002 11.0815ZM4.65503 9.64251L3.65402 10.2909L4.65552 10.8625L5.59654 10.2909L4.65503 9.64251ZM6.35653 10.2909L7.35804 9.64251L8.29905 10.2909L7.35854 10.8625L6.35653 10.2909ZM8.72255 8.84149L7.72105 9.49049L8.72255 10.0615L9.66357 9.49049L8.72255 8.84149Z" fill="white"/>
<path d="M9.99976 14.7489V9.74878H10.9998L12.4998 13.0668L13.9998 9.74878H17.4999V10.7489H14.9888V11.7488H17.4999V12.7489H14.9888V13.7488H17.4999V14.4353L19.0578 12.1489L17.5029 9.74878H18.7198L19.6779 11.2424L20.5908 9.74878H21.8985L20.3204 12.1489L22 14.7489H20.7374L19.6779 13.0668L18.6294 14.7489H13.9998V12.1489L12.9999 14.7489H11.9998L10.9998 12.1489V14.7489H9.99976Z" fill="white"/>
</svg>

<svg xmlns="http://www.w3.org/2000/svg" width="24" height="24" fill="none" viewBox="0 0 24 24">
    <path fill="#fff" d="m5.02 7.9 1.002-.649.94.648-.94.572zm-1.7.941-1.001.65 1.002.57.94-.57zM2 9.75v4.687l4 2.313v-4.626zm4.022-.908-1.002.65 1.002.57.94-.57zm-1.002 2.24 1.002-.649.94.649-.94.572zm-.365-1.438-1.001.648 1.002.572.94-.572zm1.702.648 1.001-.648.941.648-.94.572zm2.366-1.45-1.002.65 1.002.57.94-.57zM10 14.749v-5h1l1.5 3.318L14 9.749h3.5v1h-2.511v1h2.51v1h-2.51v1h2.51v.686l1.559-2.286-1.555-2.4h1.217l.958 1.493.913-1.493h1.307l-1.578 2.4 1.68 2.6h-1.263l-1.06-1.682-1.048 1.682H14v-2.6l-1 2.6h-1l-1-2.6v2.6z"/>
</svg>
